data/images/route9.svg

<svg xmlns="http://www.w3.org/2000/svg" width="1000" height="6000"><path stroke="#9d2928" d="M500 0v500m0 0v500" stroke-width="100"/><path stroke="#9d2928" d="M500 500a250 250 0 0 1-250 250" stroke-width="100" fill="none"/><path stroke="#9d2928" d="M500 1000v500m0 0v500m0 0v500m0 0v500m0 0v500m0 0v500m0 0v500m0 0v500" stroke-width="100"/><path stroke="#9d2928" d="M500 4500a250 250 0 0 1-250 250" stroke-width="100" fill="none"/><path stroke="#9d2928" stroke-opacity=".4" d="M470 4975v525m60-525v525m-60-25v525m60-525v525" stroke-width="40" stroke-dasharray="50"/></svg>

<svg xmlns="http://www.w3.org/2000/svg" width="1000" height="6000"><path stroke="#9d2928" d="M500 0v500M500 500v500" stroke-width="100"/><path stroke="#9d2928" d="M500 500a250 250 0 0 1-250 250" stroke-width="100" fill="none"/><path stroke="#9d2928" d="M500 1000v500M500 1500v500M500 2000v500M500 2500v500M500 3000v500M500 3500v500M500 4000v500M500 4500v500" stroke-width="100"/><path stroke="#9d2928" d="M500 4500a250 250 0 0 1-250 250" stroke-width="100" fill="none"/><path stroke="#9d2928" stroke-opacity=".4" d="M470 4975v525M530 4975v525M470 5475v525M530 5475v525" stroke-width="40" stroke-dasharray="50"/></svg>
